packages/react-icons/icons/carrier.svg

<svg width="24" height="24" viewBox="0 0 24 24" xmlns="http://www.w3.org/2000/svg"><path fill-rule="evenodd" clip-rule="evenodd" d="M10.3303 8.05322V6.425H13.6697V8.05322H10.3303ZM8.53027 8.05322V5.625C8.53027 5.07271 8.97799 4.625 9.53027 4.625H14.4697C15.022 4.625 15.4697 5.07272 15.4697 5.625V8.05322H19C19.5523 8.05322 20 8.50094 20 9.05322V18.375C20 18.9273 19.5523 19.375 19 19.375H5C4.44772 19.375 4 18.9273 4 18.375V9.05322C4 8.50094 4.44772 8.05322 5 8.05322H8.53027Z"/></svg>

<svg xmlns="http://www.w3.org/2000/svg" width="24" height="24"><path fill-rule="evenodd" d="M10.33 8.053V6.425h3.34v1.628h-3.34Zm-1.8 0V5.625a1 1 0 0 1 1-1h4.94a1 1 0 0 1 1 1v2.428H19a1 1 0 0 1 1 1v9.322a1 1 0 0 1-1 1H5a1 1 0 0 1-1-1V9.053a1 1 0 0 1 1-1h3.53Z" clip-rule="evenodd"/></svg>
